icons/desktop/16/svg/delete-16.svg

<svg width="16" height="16" viewBox="0 0 16 16" fill="none" xmlns="http://www.w3.org/2000/svg">
<path d="M6.24999 6.5C6.6642 6.5 6.99999 6.83579 6.99999 7.25V11.75C6.99999 12.1642 6.6642 12.5 6.24999 12.5C5.83578 12.5 5.49999 12.1642 5.49999 11.75V7.25C5.49999 6.83579 5.83578 6.5 6.24999 6.5Z" fill="black"/>
<path d="M9.74999 6.5C10.1642 6.5 10.5 6.83579 10.5 7.25V11.75C10.5 12.1642 10.1642 12.5 9.74999 12.5C9.33578 12.5 8.99999 12.1642 8.99999 11.75V7.25C8.99999 6.83579 9.33578 6.5 9.74999 6.5Z" fill="black"/>
<path fill-rule="evenodd" clip-rule="evenodd" d="M7.99999 0C8.62446 0 9.20491 0.0370712 9.73534 0.0947266C10.7611 0.206024 11.5 1.08398 11.5 2.08301V3.1543C12.411 3.23425 13.3696 3.34887 14.3691 3.50977C14.7781 3.57559 15.056 3.9602 14.9902 4.36914C14.9244 4.77808 14.5398 5.05605 14.1308 4.99023C14.0872 4.98321 14.0435 4.97755 14 4.9707V13.042C13.9998 14.436 12.9613 15.5995 11.585 15.7734C10.5075 15.91 9.30605 16 7.99999 16C6.94617 16 5.72889 15.941 4.38476 15.7695C3.0104 15.5944 2.0002 14.4087 1.99999 13.042V4.96973C1.95618 4.97662 1.91253 4.98325 1.86913 4.99023C1.4602 5.056 1.07557 4.77805 1.00976 4.36914C0.943986 3.96021 1.22194 3.57558 1.63085 3.50977C2.50929 3.36848 3.46833 3.24389 4.49999 3.15332V2.08496C4.50001 1.06215 5.27648 0.199619 6.29198 0.0908203C6.91919 0.0236949 7.49318 0 7.99999 0ZM7.99999 4.5C6.36313 4.5 4.85548 4.60547 3.49999 4.76465V13.042C3.5002 13.6724 3.96749 14.2039 4.57421 14.2812C5.84798 14.4437 7.00187 14.5 7.99999 14.5C9.23774 14.5 10.376 14.4145 11.3965 14.2852C12.0298 14.2051 12.4998 13.6735 12.5 13.042V4.76367C10.8463 4.56945 9.33365 4.5 7.99999 4.5ZM7.99999 1.5C7.54088 1.5 7.02082 1.52216 6.45214 1.58301C6.19772 1.61025 6.00001 1.82984 5.99999 2.08496V3.05176C6.64357 3.01953 7.31071 3 7.99999 3C8.62953 3 9.2974 3.01561 9.99999 3.05078V2.08301C9.99999 1.84963 9.85077 1.6633 9.65819 1.60352L9.57323 1.58594C9.09166 1.53359 8.56553 1.5 7.99999 1.5Z" fill="black"/>
</svg>

<!-- This Source Code Form is subject to the terms of the Mozilla Public
   - License, v. 2.0. If a copy of the MPL was not distributed with this
   - file, You can obtain one at http://mozilla.org/MPL/2.0/. -->
<svg xmlns="http://www.w3.org/2000/svg" width="16" height="16" fill="context-fill" fill-opacity="context-fill-opacity" viewBox="0 0 16 16">
    <path d="M6.25 6.5a.75.75 0 0 1 .75.75v4.5a.75.75 0 0 1-1.5 0v-4.5a.75.75 0 0 1 .75-.75M9.75 6.5a.75.75 0 0 1 .75.75v4.5a.75.75 0 0 1-1.5 0v-4.5a.75.75 0 0 1 .75-.75" />
    <path fill-rule="evenodd" d="M8 0c.624 0 1.205.037 1.735.095 1.026.111 1.765.989 1.765 1.988v1.071a40 40 0 0 1 2.87.356.75.75 0 1 1-.24 1.48q-.065-.01-.13-.02v8.072a2.754 2.754 0 0 1-2.415 2.731 28.5 28.5 0 0 1-7.2-.003C3.01 15.594 2 14.409 2 13.042V4.97l-.13.02a.75.75 0 1 1-.24-1.48 40 40 0 0 1 2.87-.357V2.085A2.01 2.01 0 0 1 6.292.091C6.919.024 7.493 0 8 0m0 4.5c-1.637 0-3.145.105-4.5.265v8.277c0 .63.467 1.162 1.074 1.24a27 27 0 0 0 6.823.003 1.255 1.255 0 0 0 1.103-1.243V4.764A39 39 0 0 0 8 4.5m0-3c-.46 0-.98.022-1.548.083A.51.51 0 0 0 6 2.085v.967a40 40 0 0 1 4-.001v-.968c0-.233-.15-.42-.342-.48l-.085-.017A15 15 0 0 0 8 1.5" clip-rule="evenodd" />
</svg>
